!!!COM: Peter Cornelius
!!!CNT: Deutsch
!!!TXO: Deutsch
!!!OTL: An dem Traum
!!!LYR: Cornelius
!!!OPR: Trauer und Trost
!!!OPS: Op.3
!!!ONM: No. 4
!!!ENC: Ben Fuhrman
!!!YOR: CD Sheet Music, Mid-Romantic German Lieder: The Ultimate Collection.
!!!YOR: CD Sheet Music, LLC 2001
!!!ODT: 1854
!!NB: Only vocal melody encoded.
!!NB: First instance of melodic material only encoded.
!!created: 2/1/10 4:40PM
!!proofed and posted: 2/1/10 4:40PM
**kern	**silbe
*clef G2	*
*k[f#c#]	*
*M3/4	*
*MM[Langsam]	*
=1	=1
2.r	.
=2	=2
{8.g	{O2ff-
16f#	-ne
8f#	mir
8e	die
8d	gold-
8e	-ne
=3	=3
4d	Pfor-
4c#}	-te,}
4r	.
=4	=4
{2g	{Traum,
4r	.
=5	=5
4c#	zu
4d	dei-
4e	-nem
=6	=6
8.f#	Wun-
16d	-der-
2B}	-hain,}
=7	=7
4r	.
4r	.
{8.f#	{was
16f#	mir
=8	=8
4a	blu2h-
4g}	-te}
4r	.
=9	=9
{8.d#	{und
16g#	ver-
4a	-dorr-
4g#}	-te}
=10	=10
4r	.
{4gn	{lass
4gn	mir
=11	=11
4.fn	blu2-
8d	-hend
8d	neu
8e	-ge-
=12	=12
2fn}	-deih'n}
4r	.
=13	=13
{8.e	{Zei
16e	-ge
8.g#	mir
16g#	die
8.cc#	heil'-
16cc#	-gen
=14	=14
4a	Or-
4f#	-te
8g#	mei-
8a	-ner
=15	=15
4.b	Won-
8e	-ne,
8.e	mei
16d#	-ner
=16	=16
2f#}	Pein,}
4r	.
=17	=17
{8.gn	{lass
16gn	mich
8.b	laus-
16b	-chen
8.dd	hol-
16dd	-dem
=18	=18
2dd	Wor-
4b	-te,
=19	=19
8.a	Lie-
16g#	-bes-
8g#	-strah-
8fn	-len
8e	sau-
8fn	-gen
=20	=20
2.e}	ein.}
=21	=21
{8.e#	{02ff-
16f#	-ne
4f#	mir
4en	die
=22	=22
2d	gold-
4e	-ne
=23	=23
4d	Pfor-
4c#}	-te,}
4r	.
=24	=24
4r	.
{2g	{Traum,
=25	=25
4r	.
4c	o
8d	lass
8e	mich
=26	=26
8.f#	glu2ck-
16g	-lich
2f#}	sein!}
==	==
*-	*-
